src/icons/svgs/24/github.svg

<svg width="24" height="24" viewBox="0 0 24 24" fill="none" xmlns="http://www.w3.org/2000/svg">
<path fill-rule="evenodd" clip-rule="evenodd" d="M12.0309 2C6.50251 2 1.97925 6.52326 1.97925 12.0517C1.97925 16.4912 4.82723 20.2606 8.8479 21.6008C9.35048 21.6846 9.51801 21.3495 9.51801 21.0982C9.51801 20.8469 9.51801 20.2606 9.51801 19.4229C6.7538 20.0093 6.16745 18.0827 6.16745 18.0827C5.74863 16.91 5.07852 16.5749 5.07852 16.5749C4.07335 15.9886 5.07852 15.9886 5.07852 15.9886C6.08369 16.0724 6.58627 16.9938 6.58627 16.9938C7.50768 18.5015 8.93166 18.0827 9.51801 17.8314C9.60178 17.1613 9.85307 16.7425 10.1881 16.4912C7.9265 16.2399 5.5811 15.4022 5.5811 11.5491C5.5811 10.4602 5.99992 9.53876 6.58627 8.86865C6.58627 8.5336 6.16745 7.52843 6.7538 6.1882C6.7538 6.1882 7.59144 5.93691 9.51801 7.19337C10.3557 6.94208 11.1933 6.85831 12.0309 6.85831C12.8686 6.85831 13.7062 6.94208 14.5439 7.19337C16.4704 5.85315 17.3081 6.1882 17.3081 6.1882C17.8944 7.61219 17.4756 8.61736 17.3918 8.86865C18.0619 9.53876 18.397 10.4602 18.397 11.5491C18.397 15.4022 16.0516 16.2399 13.79 16.4912C14.125 16.8262 14.4601 17.4126 14.4601 18.334C14.4601 19.6742 14.4601 20.7631 14.4601 21.0982C14.4601 21.3495 14.6276 21.6846 15.1302 21.6008C19.1509 20.2606 21.9989 16.4912 21.9989 12.0517C22.0826 6.52326 17.5594 2 12.0309 2Z" fill="black"/>
</svg>

<svg width="24" height="24" viewBox="0 0 24 24" xmlns="http://www.w3.org/2000/svg">
    <path fill-rule="evenodd" clip-rule="evenodd" d="M12.03 2C6.504 2 1.98 6.523 1.98 12.052A10.04 10.04 0 0 0 8.847 21.6c.502.084.67-.252.67-.503v-1.675c-2.764.586-3.35-1.34-3.35-1.34-.42-1.173-1.09-1.508-1.09-1.508-1.005-.586 0-.586 0-.586 1.006.083 1.508 1.005 1.508 1.005.922 1.508 2.346 1.089 2.932.837.084-.67.335-1.088.67-1.34-2.262-.251-4.607-1.089-4.607-4.942 0-1.089.419-2.01 1.005-2.68 0-.335-.419-1.34.168-2.68 0 0 .837-.252 2.764 1.004.838-.25 1.675-.335 2.513-.335.838 0 1.675.084 2.513.335 1.926-1.34 2.764-1.005 2.764-1.005.586 1.424.168 2.43.084 2.68.67.67 1.005 1.592 1.005 2.681 0 3.853-2.345 4.69-4.607 4.942.335.335.67.922.67 1.843v2.764c0 .252.168.587.67.503A10.04 10.04 0 0 0 22 12.05C22.083 6.524 17.559 2 12.03 2z"/>
</svg>
